src/assets/images/footer/corebiz-logo.svg

<svg width="72" height="18" viewBox="0 0 72 18" fill="none" xmlns="http://www.w3.org/2000/svg">
<path d="M58.8507 17.9565H56.1884V5.44262H58.8507V17.9565Z" fill="white"/>
<path d="M5.77868 8.00846C5.36706 8.00255 4.95883 8.08753 4.58027 8.25793C4.20171 8.42833 3.86122 8.68037 3.58072 8.99783C2.98221 9.65016 2.68296 10.5525 2.68296 11.6941C2.68296 12.8357 2.98221 13.7598 3.59104 14.423C3.87586 14.7443 4.22128 14.9992 4.60513 15.1714C4.98898 15.3437 5.40278 15.4295 5.81996 15.4233C6.60421 15.4233 7.23367 15.195 7.70835 14.7492C8.14965 14.3438 8.47485 13.8166 8.64739 13.2271L11.0001 14.1295C10.6906 15.1841 10.0921 16.0974 9.20462 16.8584C8.31718 17.6195 7.1924 18 5.81996 18C4.16891 18 2.78615 17.402 1.67169 16.1952C0.55723 14.9884 0 13.488 0 11.6941C0 9.87847 0.546911 8.37811 1.65105 7.19304C2.75519 6.00797 4.11731 5.41 5.75805 5.41C7.16144 5.41 8.30686 5.79053 9.1943 6.55158C10.0357 7.24827 10.6403 8.2133 10.9176 9.30225L8.51324 10.2264C8.36888 9.62441 8.06037 9.08015 7.6258 8.66079C7.17279 8.2259 6.56396 8.00846 5.77868 8.00846Z" fill="white"/>
<path d="M15.4177 14.3904C15.7144 14.7067 16.0675 14.958 16.4568 15.1299C16.846 15.3017 17.2637 15.3907 17.6858 15.3917C18.1078 15.3927 18.5259 15.3057 18.9159 15.1358C19.3059 14.9658 19.6601 14.7162 19.9581 14.4013C20.5773 13.7381 20.8868 12.8248 20.8868 11.6398C20.8868 10.4764 20.5773 9.57405 19.9581 8.92172C19.3524 8.29464 18.5371 7.94327 17.6879 7.94327C16.8387 7.94327 16.0235 8.29464 15.4177 8.92172C14.7986 9.57405 14.489 10.4764 14.489 11.6398C14.489 12.8031 14.7986 13.7272 15.4177 14.3904ZM17.6879 5.41C19.4112 5.41 20.8353 5.9971 21.9497 7.1713C23.0642 8.34549 23.6317 9.83499 23.6317 11.6506C23.6317 13.4663 23.0745 14.9558 21.9497 16.1409C20.8249 17.3259 19.4112 17.913 17.6879 17.913C15.9853 17.913 14.5716 17.3259 13.4468 16.1409C12.322 14.9558 11.7648 13.4554 11.7648 11.6506C11.7648 9.84586 12.322 8.35637 13.4468 7.1713C14.5716 5.98623 15.975 5.41 17.6879 5.41Z" fill="white"/>
<path d="M30.5765 5.48611V8.34549C30.2861 8.29856 29.993 8.27313 29.6993 8.26939C27.6768 8.26939 26.6758 9.31312 26.6758 11.6289V17.913H23.9929V5.44262H26.6036V7.4431C26.8603 6.81344 27.3062 6.29009 27.8729 5.95361C28.4772 5.58429 29.1659 5.3963 29.8644 5.41C30.1037 5.40784 30.3425 5.43336 30.5765 5.48611Z" fill="white"/>
<path d="M34.2397 10.3677H40.2145C40.205 10.0159 40.1278 9.66968 39.9877 9.35013C39.8476 9.03057 39.6474 8.74428 39.3993 8.50858C38.8936 8.00846 38.161 7.7584 37.2116 7.7584C36.3448 7.7584 35.6431 8.01933 35.1169 8.54119C34.5906 9.06306 34.2913 9.67625 34.2397 10.3677ZM40.5344 13.4337L42.98 14.1839C42.6291 15.2602 41.979 16.1517 41.0194 16.8584C40.0597 17.5651 38.8833 17.913 37.4799 17.913C35.7463 17.913 34.281 17.3368 33.0737 16.1952C31.8663 15.0536 31.2575 13.5207 31.2575 11.5963C31.2575 9.7915 31.8457 8.30201 33.0221 7.14956C34.1373 6.01616 35.6313 5.3912 37.1807 5.41C39.0484 5.41 40.5034 5.96449 41.556 7.06258C42.6085 8.16067 43.1337 9.65016 43.1337 11.5245C43.1337 12.0246 43.1131 12.3182 43.0615 12.416H34.1665C34.1776 12.8367 34.2735 13.2501 34.4479 13.6287C34.6222 14.0074 34.871 14.3426 35.1777 14.6122C35.8204 15.1919 36.6434 15.5016 37.4892 15.482C39.0484 15.4885 40.07 14.8036 40.5344 13.4337Z" fill="white"/>
<path d="M46.4266 17.9565H43.7023V0H46.4472V7.23001C46.7361 6.72989 47.2108 6.30587 47.8712 5.96883C48.5804 5.61625 49.3574 5.44136 50.1414 5.45784C51.8441 5.45784 53.1752 6.03407 54.1349 7.19739C55.0946 8.36071 55.5693 9.83933 55.5693 11.6441C55.5693 13.4815 55.0636 14.9819 54.0627 16.1669C53.0617 17.352 51.7202 17.9282 50.0486 17.9282C48.3769 17.9282 47.1695 17.3085 46.4266 16.0582V17.9565ZM51.8647 14.4013C52.4529 13.7272 52.7418 12.814 52.7418 11.6615C52.7418 10.5091 52.4529 9.60667 51.875 8.94346C51.2972 8.28026 50.5336 7.95409 49.5842 7.95409C48.6658 7.95409 47.9125 8.28026 47.314 8.94346C46.7155 9.60667 46.4266 10.5091 46.4266 11.6615C46.4266 12.814 46.7258 13.7055 47.314 14.3904C47.9022 15.0754 48.6658 15.4124 49.5842 15.4124C50.5232 15.4124 51.2765 15.0754 51.8647 14.4013Z" fill="white"/>
<path d="M71.44 17.9456H59.6969V15.4885L67.1163 7.92148H59.5731V5.44262H71.4194V7.82798L63.9071 15.4603H71.44V17.95V17.9456Z" fill="white"/>
</svg>

<svg width="72" height="18" fill="none" xmlns="http://www.w3.org/2000/svg"><path d="M58.85 17.956h-2.662V5.443h2.663v12.513zM5.779 8.008c-.412-.005-.82.08-1.199.25-.378.17-.719.422-1 .74-.598.652-.897 1.555-.897 2.696 0 1.142.3 2.066.908 2.729.285.321.63.576 1.014.748a2.86 2.86 0 001.215.252c.784 0 1.414-.228 1.888-.674.442-.405.767-.932.94-1.522L11 14.13c-.31 1.055-.908 1.968-1.795 2.73C8.317 17.618 7.192 18 5.82 18c-1.651 0-3.034-.598-4.148-1.805C.557 14.988 0 13.488 0 11.695c0-1.817.547-3.317 1.651-4.502C2.755 6.008 4.117 5.41 5.758 5.41c1.403 0 2.549.38 3.436 1.142a5.246 5.246 0 011.724 2.75l-2.405.924a3.216 3.216 0 00-.887-1.565c-.453-.435-1.062-.653-1.847-.653zm9.639 6.382c.296.317.65.568 1.039.74a3.06 3.06 0 002.459.006c.39-.17.744-.42 1.042-.735.62-.663.929-1.576.929-2.761 0-1.164-.31-2.066-.929-2.718a3.156 3.156 0 00-2.27-.979c-.85 0-1.665.352-2.27.979-.62.652-.929 1.554-.929 2.718 0 1.163.31 2.087.929 2.75zm2.27-8.98c1.723 0 3.147.587 4.262 1.761 1.114 1.174 1.682 2.664 1.682 4.48 0 1.815-.558 3.305-1.682 4.49-1.125 1.185-2.539 1.772-4.262 1.772-1.703 0-3.116-.587-4.241-1.772-1.125-1.185-1.682-2.686-1.682-4.49 0-1.805.557-3.295 1.682-4.48 1.125-1.185 2.528-1.761 4.24-1.761zm12.888.076v2.86a5.974 5.974 0 00-.877-.077c-2.022 0-3.023 1.044-3.023 3.36v6.284h-2.683V5.443h2.61v2a3.076 3.076 0 011.27-1.49 3.676 3.676 0 011.991-.543c.24-.002.479.023.712.076zm3.664 4.882h5.974a2.72 2.72 0 00-.226-1.018 2.6 2.6 0 00-.589-.841c-.505-.5-1.238-.75-2.187-.75-.867 0-1.569.26-2.095.782-.526.522-.826 1.135-.877 1.827zm6.294 3.066l2.446.75c-.35 1.076-1.001 1.968-1.96 2.674-.96.707-2.137 1.055-3.54 1.055-1.734 0-3.199-.576-4.406-1.718-1.208-1.141-1.816-2.674-1.816-4.599 0-1.805.588-3.294 1.764-4.446 1.115-1.134 2.61-1.759 4.159-1.74 1.867 0 3.322.554 4.375 1.653 1.053 1.098 1.578 2.587 1.578 4.462 0 .5-.02.793-.072.891h-8.895c.01.42.106.834.28 1.213.175.378.424.714.73.983.643.58 1.466.89 2.312.87 1.56.007 2.581-.678 3.045-2.048zm5.893 4.522h-2.725V0h2.745v7.23c.29-.5.764-.924 1.424-1.261a4.865 4.865 0 012.27-.511c1.703 0 3.034.576 3.994 1.74.96 1.163 1.434 2.641 1.434 4.446 0 1.838-.505 3.338-1.506 4.523-1.001 1.185-2.343 1.761-4.014 1.761-1.672 0-2.88-.62-3.622-1.87v1.898zm5.438-3.555c.588-.674.877-1.587.877-2.74 0-1.152-.29-2.054-.867-2.718-.578-.663-1.341-.989-2.29-.989-.92 0-1.672.326-2.271.99-.599.663-.887 1.565-.887 2.717 0 1.153.299 2.045.887 2.73.588.684 1.352 1.021 2.27 1.021.94 0 1.692-.337 2.28-1.01zm19.575 3.545H59.697v-2.458l7.42-7.567h-7.544V5.443H71.42v2.385l-7.512 7.632h7.533v2.49-.004z" fill="#fff"/></svg>
